X:185
T: KOMMT FREUNDE KOMMT AUFS LAND
N: F0323
O: Europa, Mitteleuropa, Deutschland
R: Jugend - Lied, Natur, Wander - Lied
M: 2/4
L: 1/16
K: C
C2 | G,2E,2F,2A,2 | G,6
E,2 | F,3E,F,2G,2 | E,4C,2
G,2 | C3B,C2D2 | B,4G,2
D2 | E2DEF2D2 | E3DC2
C2 | B,2CEDCB,2 | C4z2

